src/assets/icons/mail.svg

<svg width="512" height="512" viewBox="0 0 512 512" fill="none" xmlns="http://www.w3.org/2000/svg">
<path d="M467 61H44.9999C38.0729 61 31.5879 62.703 25.7209 65.51L255 294.789L306.389 245.402C306.389 245.402 306.393 245.397 306.394 245.395C306.395 245.393 306.399 245.391 306.399 245.391L486.286 65.514C480.418 62.705 473.929 61 467 61Z" fill="#204051"/>
<path d="M507.496 86.728L338.213 256.002L507.49 425.279C510.297 419.412 512 412.927 512 406V106C512 99.077 510.301 92.593 507.496 86.728Z" fill="#204051"/>
<path d="M4.51 86.7209C1.703 92.5879 0 99.0729 0 106V406C0 412.923 1.701 419.409 4.506 425.274L173.789 256L4.51 86.7209Z" fill="#204051"/>
<path d="M317.002 277.213L265.606 326.606C262.676 329.536 258.838 331.001 255.001 331.001C251.164 331.001 247.325 329.536 244.396 326.606L195 277.211L25.7141 446.486C31.5821 449.295 38.0711 451 45.0001 451H467C473.927 451 480.412 449.297 486.279 446.49L317.002 277.213Z" fill="#204051"/>
</svg>

<?xml version="1.0" encoding="iso-8859-1"?>
<!-- Generator: Adobe Illustrator 19.0.0, SVG Export Plug-In . SVG Version: 6.00 Build 0)  -->
<svg version="1.1" id="Capa_1" xmlns="http://www.w3.org/2000/svg" xmlns:xlink="http://www.w3.org/1999/xlink" x="0px" y="0px"
	 viewBox="0 0 512 512" style="enable-background:new 0 0 512 512;" xml:space="preserve">
<g>
	<g>
		<path d="M467,61H45c-6.927,0-13.412,1.703-19.279,4.51L255,294.789l51.389-49.387c0,0,0.004-0.005,0.005-0.007
			c0.001-0.002,0.005-0.004,0.005-0.004L486.286,65.514C480.418,62.705,473.929,61,467,61z"/>
	</g>
</g>
<g>
	<g>
		<path d="M507.496,86.728L338.213,256.002L507.49,425.279c2.807-5.867,4.51-12.352,4.51-19.279V106
			C512,99.077,510.301,92.593,507.496,86.728z"/>
	</g>
</g>
<g>
	<g>
		<path d="M4.51,86.721C1.703,92.588,0,99.073,0,106v300c0,6.923,1.701,13.409,4.506,19.274L173.789,256L4.51,86.721z"/>
	</g>
</g>
<g>
	<g>
		<path d="M317.002,277.213l-51.396,49.393c-2.93,2.93-6.768,4.395-10.605,4.395s-7.676-1.465-10.605-4.395L195,277.211
			L25.714,446.486C31.582,449.295,38.071,451,45,451h422c6.927,0,13.412-1.703,19.279-4.51L317.002,277.213z"/>
	</g>
</g>
<g>
</g>
<g>
</g>
<g>
</g>
<g>
</g>
<g>
</g>
<g>
</g>
<g>
</g>
<g>
</g>
<g>
</g>
<g>
</g>
<g>
</g>
<g>
</g>
<g>
</g>
<g>
</g>
<g>
</g>
</svg>
